; generated by PrusaSlicer 2.6.1+MacOS-arm64 on 2024-03-12 at 10:58:25 UTC


;
;
; 

; external perimeters extrusion width = 0.65mm
; perimeters extrusion width = 0.65mm
; infill extrusion width = 0.65mm
; solid infill extrusion width = 0.65mm
; top infill extrusion width = 0.60mm
; first layer extrusion width = 0.65mm

M73 P0 R187
M73 Q0 S188
M201 X1000 Y1000 Z200 E5000 ; sets maximum accelerations, mm/sec^2
M203 X200 Y200 Z12 E120 ; sets maximum feedrates, mm / sec
M204 S1250 T1250 ; sets acceleration (S) and retract acceleration (R), mm/sec^2
M205 X8.00 Y8.00 Z0.40 E4.50 ; sets the jerk limits, mm/sec
M205 S0 T0 ; sets the minimum extruding and travel feed rate, mm/sec
;TYPE:Custom
M862.3 P "MK3S" ; printer model check
M862.1 P0.6 ; nozzle diameter check
M115 U3.13.2 ; tell printer latest fw version
G90 ; use absolute coordinates
M83 ; extruder relative mode
M104 S215 ; set extruder temp
M140 S60 ; set bed temp
M190 S60 ; wait for bed temp
M109 S215 ; wait for extruder temp
G28 W ; home all without mesh bed level
G80 ; mesh bed leveling

G1 Z0.2 F720
G1 Y-3 F1000 ; go outside print area
G92 E0
G1 X60 E9 F1000 ; intro line
G1 X100 E12.5 F1000 ; intro line

G92 E0
M221 S95
G21 ; set units to millimeters
G90 ; use absolute coordinates
M83 ; use relative distances for extrusion
M900 K0.04 ; Filament gcode LA 1.5
M900 K18 ; Filament gcode LA 1.0

M107
;LAYER_CHANGE
;Z:0.2
;HEIGHT:0.2
;BEFORE_LAYER_CHANGE
G92 E0.0
;0.2


G1 E-.8 F2100
G1 Z.4 F720
;AFTER_LAYER_CHANGE
;0.2
G1 X32.744 Y41.063 F10800
G1 Z.2 F720
G1 E.8 F1500
M204 S800
;TYPE:Skirt/Brim
;WIDTH:0.65
G1 F1200
G1 X33.9 Y40.793 E.05992
G1 X216.1 Y40.793 E9.19725
G1 X217.475 Y41.185 E.07217
G1 X218.437 Y42.244 E.07222
G1 X218.707 Y43.4 E.05992
G1 X218.707 Y166.6 E6.219
G1 X218.315 Y167.975 E.07217
M73 Q0 S187
G1 X217.256 Y168.937 E.07222
G1 X216.1 Y169.207 E.05992
G1 X33.9 Y169.207 E9.19725
G1 X32.525 Y168.815 E.07217
G1 X31.563 Y167.756 E.07222
G1 X31.293 Y166.6 E.05992
G1 X31.293 Y43.4 E6.219
G1 X31.685 Y42.025 E.07217
G1 X32.678 Y41.124 E.06768
M204 S1000
; printing object Back-Frame v2.stl id:0 copy 0
;WIPE_START
G1 F8640
G1 X33.9 Y40.793 E-.29233
G1 X36.099 Y40.793 E-.50767
;WIPE_END
G1 Z.6 F720
G1 X214.968 Y165.468 F10800
G1 Z.2 F720
G1 E.8 F1500
M204 S800
;TYPE:Perimeter
;WIDTH:0.649999
G1 F1200
M73 P0 R186
G1 X35.032 Y165.468 E9.08296
G1 X35.032 Y44.532 E6.10471
G1 X214.968 Y44.532 E9.08296
G1 X214.968 Y165.378 E6.10016
M204 S1000
G1 X215.575 Y166.075 F10800
M204 S800
;TYPE:External perimeter
G1 F1200
G1 X34.425 Y166.075 E9.14424
G1 X34.425 Y43.925 E6.16599
G1 X215.575 Y43.925 E9.14424
M73 Q0 S186
G1 X215.575 Y165.985 E6.16144
M204 S1000
G1 X214.987 Y165.957 F10800
;WIPE_START
M73 P0 R185
G1 F8640
G1 X212.11 Y165.987 E-.8
;WIPE_END
G1 Z.6 F720
G1 X213.496 Y44.775 F10800
G1 Z.2 F720
G1 E.8 F1500
M204 S800
;TYPE:Solid infill
;WIDTH:0.650792
G1 F1200
G1 X214.452 Y45.731 E.06834
G1 X214.452 Y46.59 E.04342
G1 X212.91 Y45.048 E.11022
G1 X212.05 Y45.048 E.04347
G1 X214.452 Y47.45 E.1717
G1 X214.452 Y48.31 E.04347
G1 X211.19 Y45.048 E.23317
G1 X210.331 Y45.048 E.04342
G1 X214.452 Y49.169 E.29457
G1 X214.452 Y50.029 E.04347
G1 X209.471 Y45.048 E.35605
G1 X208.611 Y45.048 E.04347
G1 X214.452 Y50.889 E.41752
G1 X214.452 Y51.748 E.04342
G1 X207.752 Y45.048 E.47892
G1 X206.892 Y45.048 E.04347
G1 X214.452 Y52.608 E.5404
G1 X214.452 Y53.468 E.04347
G1 X206.032 Y45.048 E.60187
G1 X205.173 Y45.048 E.04342
G1 X214.452 Y54.327 E.66327
G1 X214.452 Y55.187 E.04347
G1 X204.313 Y45.048 E.72475
G1 X203.453 Y45.048 E.04347
G1 X214.452 Y56.047 E.78622
G1 X214.452 Y56.906 E.04342
G1 X202.594 Y45.048 E.84762
G1 X201.734 Y45.048 E.04347
G1 X214.452 Y57.766 E.9091
G1 X214.452 Y58.625 E.04342
G1 X200.875 Y45.048 E.9705
G1 X200.015 Y45.048 E.04347
G1 X214.452 Y59.485 E1.03197
G1 X214.452 Y60.345 E.04347
G1 X199.155 Y45.048 E1.09345
G1 X198.296 Y45.048 E.04342
M73 P1 R185
M73 Q1 S186
G1 X214.452 Y61.204 E1.15485
G1 X214.452 Y62.064 E.04347
G1 X197.436 Y45.048 E1.21632
G1 X196.576 Y45.048 E.04347
G1 X214.452 Y62.924 E1.2778
G1 X214.452 Y63.783 E.04342
G1 X195.717 Y45.048 E1.3392
G1 X194.857 Y45.048 E.04347
G1 X214.452 Y64.643 E1.40067
G1 X214.452 Y65.503 E.04347
G1 X193.997 Y45.048 E1.46215
G1 X193.138 Y45.048 E.04342
G1 X214.452 Y66.362 E1.52355
G1 X214.452 Y67.222 E.04347
G1 X192.278 Y45.048 E1.58502
G1 X191.418 Y45.048 E.04347
G1 X214.452 Y68.082 E1.6465
G1 X214.452 Y68.941 E.04342
G1 X190.559 Y45.048 E1.7079
G1 X189.699 Y45.048 E.04347
G1 X214.452 Y69.801 E1.76937
G1 X214.452 Y70.661 E.04347
G1 X188.839 Y45.048 E1.83085
G1 X187.98 Y45.048 E.04342
G1 X214.452 Y71.52 E1.89225
G1 X214.452 Y72.38 E.04347
G1 X187.12 Y45.048 E1.95372
G1 X186.26 Y45.048 E.04347
G1 X214.452 Y73.24 E2.01519
G1 X214.452 Y74.099 E.04342
G1 X185.401 Y45.048 E2.0766
G1 X184.541 Y45.048 E.04347
G1 X214.452 Y74.959 E2.13807
G1 X214.452 Y75.819 E.04347
M73 Q1 S185
G1 X183.681 Y45.048 E2.19954
G1 X182.822 Y45.048 E.04342
G1 X214.452 Y76.678 E2.26095
G1 X214.452 Y77.538 E.04347
G1 X181.962 Y45.048 E2.32242
G1 X181.102 Y45.048 E.04347
G1 X214.452 Y78.398 E2.38389
G1 X214.452 Y79.257 E.04342
G1 X180.243 Y45.048 E2.4453
G1 X179.383 Y45.048 E.04347
G1 X214.452 Y80.117 E2.50677
G1 X214.452 Y80.977 E.04347
G1 X178.523 Y45.048 E2.56824
G1 X177.664 Y45.048 E.04342
G1 X214.452 Y81.836 E2.62965
G1 X214.452 Y82.696 E.04347
M73 P1 R184
G1 X176.804 Y45.048 E2.69112
G1 X175.944 Y45.048 E.04347
G1 X214.452 Y83.556 E2.75259
G1 X214.452 Y84.415 E.04342
G1 X175.085 Y45.048 E2.814
G1 X174.225 Y45.048 E.04347
G1 X214.452 Y85.275 E2.87547
G1 X214.452 Y86.135 E.04347
G1 X173.365 Y45.048 E2.93694
G1 X172.506 Y45.048 E.04342
G1 X214.452 Y86.994 E2.99835
G1 X214.452 Y87.854 E.04347
G1 X171.646 Y45.048 E3.05982
G1 X170.786 Y45.048 E.04347
G1 X214.452 Y88.714 E3.12129
G1 X214.452 Y89.573 E.04342
G1 X169.927 Y45.048 E3.1827
G1 X169.067 Y45.048 E.04347
G1 X214.452 Y90.433 E3.24417
G1 X214.452 Y91.293 E.04347
G1 X168.207 Y45.048 E3.30564
G1 X167.348 Y45.048 E.04342
G1 X214.452 Y92.152 E3.36705
G1 X214.452 Y93.012 E.04347
G1 X166.488 Y45.048 E3.42852
G1 X165.628 Y45.048 E.04347
G1 X214.452 Y93.872 E3.48999
G1 X214.452 Y94.731 E.04342
M73 Q1 S184
G1 X164.769 Y45.048 E3.55139
G1 X163.909 Y45.048 E.04347
G1 X214.452 Y95.591 E3.61287
G1 X214.452 Y96.451 E.04347
G1 X163.049 Y45.048 E3.67434
G1 X162.19 Y45.048 E.04342
G1 X214.452 Y97.31 E3.73574
G1 X214.452 Y98.17 E.04347
G1 X161.33 Y45.048 E3.79722
G1 X160.47 Y45.048 E.04347
M73 P1 R183
G1 X214.452 Y99.03 E3.85869
G1 X214.452 Y99.889 E.04342
M73 P2 R183
M73 Q2 S184
G1 X159.611 Y45.048 E3.92009
G1 X158.751 Y45.048 E.04347
G1 X214.452 Y100.749 E3.98157
G1 X214.452 Y101.609 E.04347
G1 X157.891 Y45.048 E4.04304
G1 X157.032 Y45.048 E.04342
G1 X214.452 Y102.468 E4.10444
G1 X214.452 Y103.328 E.04347
G1 X156.172 Y45.048 E4.16592
G1 X155.312 Y45.048 E.04347
G1 X214.452 Y104.188 E4.22739
G1 X214.452 Y105.047 E.04342
G1 X154.453 Y45.048 E4.28879
G1 X153.593 Y45.048 E.04347
G1 X214.452 Y105.907 E4.35027
G1 X214.452 Y106.766 E.04342
G1 X152.734 Y45.048 E4.41167
G1 X151.874 Y45.048 E.04347
M73 Q2 S183
G1 X214.452 Y107.626 E4.47314
G1 X214.452 Y108.486 E.04347
G1 X151.014 Y45.048 E4.53462
G1 X150.155 Y45.048 E.04342
G1 X214.452 Y109.345 E4.59602
G1 X214.452 Y110.205 E.04347
G1 X149.295 Y45.048 E4.65749
G1 X148.435 Y45.048 E.04347
M73 P2 R182
G1 X214.452 Y111.065 E4.71897
G1 X214.452 Y111.924 E.04342
G1 X147.576 Y45.048 E4.78037
G1 X146.716 Y45.048 E.04347
G1 X214.452 Y112.784 E4.84184
G1 X214.452 Y113.644 E.04347
G1 X145.856 Y45.048 E4.90332
G1 X144.997 Y45.048 E.04342
G1 X214.452 Y114.503 E4.96472
G1 X214.452 Y115.363 E.04347
G1 X144.137 Y45.048 E5.02619
G1 X143.277 Y45.048 E.04347
G1 X214.452 Y116.223 E5.08767
G1 X214.452 Y117.082 E.04342
G1 X142.418 Y45.048 E5.14907
G1 X141.558 Y45.048 E.04347
M73 Q2 S182
G1 X214.452 Y117.942 E5.21054
G1 X214.452 Y118.802 E.04347
G1 X140.698 Y45.048 E5.27202
G1 X139.839 Y45.048 E.04342
G1 X214.452 Y119.661 E5.33342
G1 X214.452 Y120.521 E.04347
M73 P3 R182
M73 Q3 S182
G1 X138.979 Y45.048 E5.39489
G1 X138.119 Y45.048 E.04347
M73 P3 R181
G1 X214.452 Y121.381 E5.45637
G1 X214.452 Y122.24 E.04342
G1 X137.26 Y45.048 E5.51777
G1 X136.4 Y45.048 E.04347
G1 X214.452 Y123.1 E5.57924
G1 X214.452 Y123.96 E.04347
G1 X135.54 Y45.048 E5.64072
G1 X134.681 Y45.048 E.04342
G1 X214.452 Y124.819 E5.70212
G1 X214.452 Y125.679 E.04347
G1 X133.821 Y45.048 E5.76359
G1 X132.961 Y45.048 E.04347
G1 X214.452 Y126.539 E5.82507
G1 X214.452 Y127.398 E.04342
M73 Q3 S181
G1 X132.102 Y45.048 E5.88647
G1 X131.242 Y45.048 E.04347
G1 X214.452 Y128.258 E5.94794
G1 X214.452 Y129.118 E.04347
G1 X130.382 Y45.048 E6.00942
G1 X129.523 Y45.048 E.04342
M73 P3 R180
G1 X214.452 Y129.977 E6.07082
G1 X214.452 Y130.837 E.04347
G1 X128.663 Y45.048 E6.13229
G1 X127.803 Y45.048 E.04347
G1 X214.452 Y131.697 E6.19376
G1 X214.452 Y132.556 E.04342
G1 X126.944 Y45.048 E6.25517
G1 X126.084 Y45.048 E.04347
G1 X214.452 Y133.416 E6.31664
G1 X214.452 Y134.276 E.04347
G1 X125.224 Y45.048 E6.37811
G1 X124.365 Y45.048 E.04342
G1 X214.452 Y135.135 E6.43952
G1 X214.452 Y135.995 E.04347
M73 Q3 S180
G1 X123.505 Y45.048 E6.50099
G1 X122.645 Y45.048 E.04347
M73 P4 R180
M73 Q4 S180
G1 X214.452 Y136.855 E6.56246
G1 X214.452 Y137.714 E.04342
G1 X121.786 Y45.048 E6.62387
G1 X120.926 Y45.048 E.04347
M73 P4 R179
G1 X214.452 Y138.574 E6.68534
G1 X214.452 Y139.434 E.04347
G1 X120.066 Y45.048 E6.74681
G1 X119.207 Y45.048 E.04342
G1 X214.452 Y140.293 E6.80822
G1 X214.452 Y141.153 E.04347
G1 X118.347 Y45.048 E6.86969
G1 X117.487 Y45.048 E.04347
G1 X214.452 Y142.013 E6.93116
G1 X214.452 Y142.872 E.04342
G1 X116.628 Y45.048 E6.99257
G1 X115.768 Y45.048 E.04347
M73 Q4 S179
G1 X214.452 Y143.732 E7.05404
G1 X214.452 Y144.592 E.04347
G1 X114.908 Y45.048 E7.11551
G1 X114.049 Y45.048 E.04342
G1 X214.452 Y145.451 E7.17692
G1 X214.452 Y146.311 E.04347
M73 P4 R178
G1 X113.189 Y45.048 E7.23839
G1 X112.329 Y45.048 E.04347
G1 X214.452 Y147.171 E7.29986
G1 X214.452 Y148.03 E.04342
G1 X111.47 Y45.048 E7.36127
G1 X110.61 Y45.048 E.04347
G1 X214.452 Y148.89 E7.42274
G1 X214.452 Y149.75 E.04347
G1 X109.75 Y45.048 E7.48421
G1 X108.891 Y45.048 E.04342
M73 P5 R178
M73 Q4 S178
G1 X214.452 Y150.609 E7.54562
G1 X214.452 Y151.469 E.04347
M73 Q5 S178
G1 X108.031 Y45.048 E7.60709
G1 X107.171 Y45.048 E.04347
G1 X214.452 Y152.329 E7.66856
G1 X214.452 Y153.188 E.04342
M73 P5 R177
G1 X106.312 Y45.048 E7.72996
G1 X105.452 Y45.048 E.04347
G1 X214.452 Y154.048 E7.79144
G1 X214.452 Y154.908 E.04347
G1 X104.593 Y45.048 E7.85288
G1 X103.733 Y45.048 E.04347
G1 X214.452 Y155.767 E7.91431
G1 X214.452 Y156.627 E.04347
G1 X102.873 Y45.048 E7.97579
G1 X102.014 Y45.048 E.04342
M73 Q5 S177
G1 X214.452 Y157.486 E8.03719
G1 X214.452 Y158.346 E.04347
G1 X101.154 Y45.048 E8.09866
G1 X100.294 Y45.048 E.04347
M73 P5 R176
G1 X214.452 Y159.206 E8.16014
G1 X214.452 Y160.065 E.04342
G1 X99.435 Y45.048 E8.22154
G1 X98.575 Y45.048 E.04347
G1 X214.452 Y160.925 E8.28301
G1 X214.452 Y161.785 E.04347
G1 X97.715 Y45.048 E8.34449
G1 X96.856 Y45.048 E.04342
G1 X214.452 Y162.644 E8.40589
G1 X214.452 Y163.504 E.04347
M73 P6 R176
M73 Q6 S176
G1 X95.996 Y45.048 E8.46736
G1 X95.136 Y45.048 E.04347
G1 X214.452 Y164.364 E8.52884
G1 X214.452 Y164.952 E.02972
G1 X214.18 Y164.952 E.01375
G1 X94.277 Y45.048 E8.57083
G1 X93.417 Y45.048 E.04347
M73 P6 R175
G1 X213.321 Y164.952 E8.57087
G1 X212.461 Y164.952 E.04347
G1 X92.557 Y45.048 E8.57087
G1 X91.698 Y45.048 E.04342
G1 X211.601 Y164.952 E8.57083
G1 X210.742 Y164.952 E.04342
G1 X90.838 Y45.048 E8.57087
G1 X89.978 Y45.048 E.04347
M73 Q6 S175
G1 X209.882 Y164.952 E8.57087
G1 X209.022 Y164.952 E.04347
G1 X89.119 Y45.048 E8.57083
G1 X88.259 Y45.048 E.04347
G1 X208.163 Y164.952 E8.57087
G1 X207.303 Y164.952 E.04347
M73 P6 R174
G1 X87.399 Y45.048 E8.57087
G1 X86.54 Y45.048 E.04342
G1 X206.443 Y164.952 E8.57083
G1 X205.584 Y164.952 E.04342
G1 X85.68 Y45.048 E8.57087
G1 X84.82 Y45.048 E.04347
M73 P7 R174
M73 Q7 S175
G1 X204.724 Y164.952 E8.57087
G1 X203.864 Y164.952 E.04347
M73 Q7 S174
G1 X83.961 Y45.048 E8.57083
G1 X83.101 Y45.048 E.04347
G1 X203.005 Y164.952 E8.57087
G1 X202.145 Y164.952 E.04347
G1 X82.241 Y45.048 E8.57087
G1 X81.382 Y45.048 E.04342
M73 P7 R173
G1 X201.285 Y164.952 E8.57083
G1 X200.426 Y164.952 E.04342
G1 X80.522 Y45.048 E8.57087
G1 X79.662 Y45.048 E.04347
G1 X199.566 Y164.952 E8.57087
G1 X198.706 Y164.952 E.04347
G1 X78.803 Y45.048 E8.57083
G1 X77.943 Y45.048 E.04347
M73 Q7 S173
G1 X197.847 Y164.952 E8.57087
G1 X196.987 Y164.952 E.04347
G1 X77.083 Y45.048 E8.57087
G1 X76.224 Y45.048 E.04342
G1 X196.128 Y164.952 E8.57087
G1 X195.268 Y164.952 E.04347
M73 P7 R172
G1 X75.364 Y45.048 E8.57087
G1 X74.504 Y45.048 E.04347
G1 X194.408 Y164.952 E8.57087
G1 X193.549 Y164.952 E.04342
M73 P8 R172
M73 Q8 S173
G1 X73.645 Y45.048 E8.57087
G1 X72.785 Y45.048 E.04347
G1 X192.689 Y164.952 E8.57087
G1 X191.829 Y164.952 E.04347
G1 X71.925 Y45.048 E8.57087
G1 X71.066 Y45.048 E.04342
M73 Q8 S172
G1 X190.97 Y164.952 E8.57087
G1 X190.11 Y164.952 E.04347
G1 X70.206 Y45.048 E8.57087
G1 X69.346 Y45.048 E.04347
M73 P8 R171
G1 X189.25 Y164.952 E8.57087
G1 X188.391 Y164.952 E.04342
G1 X68.487 Y45.048 E8.57087
G1 X67.627 Y45.048 E.04347
G1 X187.531 Y164.952 E8.57087
G1 X186.671 Y164.952 E.04347
G1 X66.767 Y45.048 E8.57087
G1 X65.908 Y45.048 E.04342
G1 X185.812 Y164.952 E8.57087
G1 X184.952 Y164.952 E.04347
M73 Q8 S171
G1 X65.048 Y45.048 E8.57087
G1 X64.188 Y45.048 E.04347
G1 X184.092 Y164.952 E8.57087
G1 X183.233 Y164.952 E.04342
M73 P8 R170
G1 X63.329 Y45.048 E8.57087
G1 X62.469 Y45.048 E.04347
M73 P9 R170
G1 X182.373 Y164.952 E8.57087
G1 X181.513 Y164.952 E.04347
M73 Q9 S171
G1 X61.609 Y45.048 E8.57087
G1 X60.75 Y45.048 E.04342
G1 X180.654 Y164.952 E8.57087
G1 X179.794 Y164.952 E.04347
G1 X59.89 Y45.048 E8.57087
G1 X59.03 Y45.048 E.04347
M73 Q9 S170
G1 X178.934 Y164.952 E8.57087
G1 X178.075 Y164.952 E.04342
G1 X58.171 Y45.048 E8.57087
G1 X57.311 Y45.048 E.04347
M73 P9 R169
G1 X177.215 Y164.952 E8.57087
G1 X176.355 Y164.952 E.04347
G1 X56.451 Y45.048 E8.57087
G1 X55.592 Y45.048 E.04342
G1 X175.496 Y164.952 E8.57087
G1 X174.636 Y164.952 E.04347
G1 X54.732 Y45.048 E8.57087
G1 X53.873 Y45.048 E.04342
G1 X173.776 Y164.952 E8.57083
G1 X172.917 Y164.952 E.04342
M73 Q9 S169
G1 X53.013 Y45.048 E8.57087
G1 X52.153 Y45.048 E.04347
G1 X172.057 Y164.952 E8.57087
G1 X171.197 Y164.952 E.04347
M73 P10 R168
G1 X51.294 Y45.048 E8.57083
G1 X50.434 Y45.048 E.04347
M73 Q10 S169
G1 X170.338 Y164.952 E8.57087
G1 X169.478 Y164.952 E.04347
G1 X49.574 Y45.048 E8.57087
G1 X48.715 Y45.048 E.04342
G1 X168.618 Y164.952 E8.57083
G1 X167.759 Y164.952 E.04342
G1 X47.855 Y45.048 E8.57087
G1 X46.995 Y45.048 E.04347
M73 Q10 S168
G1 X166.899 Y164.952 E8.57087
G1 X166.039 Y164.952 E.04347
G1 X46.136 Y45.048 E8.57083
G1 X45.276 Y45.048 E.04347
M73 P10 R167
G1 X165.18 Y164.952 E8.57087
G1 X164.32 Y164.952 E.04347
G1 X44.416 Y45.048 E8.57087
G1 X43.557 Y45.048 E.04342
G1 X163.46 Y164.952 E8.57083
G1 X162.601 Y164.952 E.04342
G1 X42.697 Y45.048 E8.57087
G1 X41.837 Y45.048 E.04347
G1 X161.741 Y164.952 E8.57087
G1 X160.881 Y164.952 E.04347
M73 Q10 S167
G1 X40.978 Y45.048 E8.57083
G1 X40.118 Y45.048 E.04347
G1 X160.022 Y164.952 E8.57087
G1 X159.162 Y164.952 E.04347
M73 P11 R166
M73 Q11 S167
G1 X39.258 Y45.048 E8.57087
G1 X38.399 Y45.048 E.04342
G1 X158.302 Y164.952 E8.57083
G1 X157.443 Y164.952 E.04342
G1 X37.539 Y45.048 E8.57087
G1 X36.679 Y45.048 E.04347
G1 X156.583 Y164.952 E8.57087
G1 X155.723 Y164.952 E.04347
G1 X35.82 Y45.048 E8.57083
G1 X35.548 Y45.048 E.01375
M73 Q11 S166
G1 X35.548 Y45.636 E.02972
G1 X154.864 Y164.952 E8.52884
G1 X154.004 Y164.952 E.04347
G1 X35.548 Y46.496 E8.46736
G1 X35.548 Y47.356 E.04347
M73 P11 R165
G1 X153.144 Y164.952 E8.40589
G1 X152.285 Y164.952 E.04342
G1 X35.548 Y48.215 E8.34449
G1 X35.548 Y49.075 E.04347
G1 X151.425 Y164.952 E8.28301
G1 X150.565 Y164.952 E.04347
G1 X35.548 Y49.935 E8.22154
G1 X35.548 Y50.794 E.04342
G1 X149.706 Y164.952 E8.16014
G1 X148.846 Y164.952 E.04347
M73 Q11 S165
G1 X35.548 Y51.654 E8.09866
G1 X35.548 Y52.514 E.04347
M73 P12 R165
G1 X147.986 Y164.952 E8.03719
