; generated by PrusaSlicer 2.6.1+MacOS-arm64 on 2024-03-18 at 11:08:45 UTC


;
;
; 

; external perimeters extrusion width = 0.65mm
; perimeters extrusion width = 0.65mm
; infill extrusion width = 0.65mm
; solid infill extrusion width = 0.65mm
; top infill extrusion width = 0.60mm
; first layer extrusion width = 0.65mm

M73 P0 R82
M73 Q0 S83
M201 X1000 Y1000 Z200 E5000 ; sets maximum accelerations, mm/sec^2
M203 X200 Y200 Z12 E120 ; sets maximum feedrates, mm / sec
M204 S1250 T1250 ; sets acceleration (S) and retract acceleration (R), mm/sec^2
M205 X8.00 Y8.00 Z0.40 E4.50 ; sets the jerk limits, mm/sec
M205 S0 T0 ; sets the minimum extruding and travel feed rate, mm/sec
;TYPE:Custom
M862.3 P "MK3S" ; printer model check
M862.1 P0.6 ; nozzle diameter check
M115 U3.13.2 ; tell printer latest fw version
G90 ; use absolute coordinates
M83 ; extruder relative mode
M104 S215 ; set extruder temp
M140 S60 ; set bed temp
M190 S60 ; wait for bed temp
M109 S215 ; wait for extruder temp
G28 W ; home all without mesh bed level
G80 ; mesh bed leveling

G1 Z0.2 F720
G1 Y-3 F1000 ; go outside print area
G92 E0
G1 X60 E9 F1000 ; intro line
G1 X100 E12.5 F1000 ; intro line

G92 E0
M221 S95
G21 ; set units to millimeters
G90 ; use absolute coordinates
M83 ; use relative distances for extrusion
M900 K0.04 ; Filament gcode LA 1.5
M900 K18 ; Filament gcode LA 1.0

M107
;LAYER_CHANGE
;Z:0.2
;HEIGHT:0.2
;BEFORE_LAYER_CHANGE
G92 E0.0
;0.2


G1 E-.8 F2100
G1 Z.4 F720
;AFTER_LAYER_CHANGE
;0.2
G1 X35.244 Y46.703 F10800
G1 Z.2 F720
G1 E.8 F1500
M204 S800
;TYPE:Skirt/Brim
;WIDTH:0.65
G1 F1200
G1 X36.4 Y46.433 E.05992
G1 X213.6 Y46.433 E8.94486
G1 X214.975 Y46.825 E.07217
G1 X215.937 Y47.884 E.07222
G1 X216.207 Y49.04 E.05992
G1 X216.207 Y160.96 E5.6496
G1 X215.815 Y162.335 E.07217
G1 X214.756 Y163.297 E.07222
G1 X213.6 Y163.567 E.05992
G1 X36.4 Y163.567 E8.94486
G1 X35.025 Y163.175 E.07217
M73 P0 R81
M73 Q0 S82
G1 X34.063 Y162.116 E.07222
G1 X33.793 Y160.96 E.05992
G1 X33.793 Y49.04 E5.6496
G1 X34.185 Y47.665 E.07217
G1 X35.178 Y46.764 E.06768
M204 S1000
; printing object Front-Frame.stl id:0 copy 0
;WIPE_START
G1 F8640
G1 X36.4 Y46.433 E-.29233
G1 X38.599 Y46.433 E-.50767
;WIPE_END
G1 Z.6 F720
G1 X212.468 Y159.828 F10800
G1 Z.2 F720
G1 E.8 F1500
M204 S800
;TYPE:Perimeter
;WIDTH:0.649999
G1 F1200
G1 X37.532 Y159.828 E8.83056
G1 X37.532 Y50.172 E5.53531
G1 X212.468 Y50.172 E8.83056
M73 P1 R81
M73 Q1 S82
G1 X212.468 Y159.738 E5.53076
M204 S1000
G1 X213.075 Y160.435 F10800
M204 S800
;TYPE:External perimeter
G1 F1200
G1 X36.925 Y160.435 E8.89184
G1 X36.925 Y49.565 E5.59659
G1 X213.075 Y49.565 E8.89184
G1 X213.075 Y160.345 E5.59204
M204 S1000
M73 P1 R80
M73 Q1 S81
G1 X212.485 Y160.323 F10800
;WIPE_START
G1 F8640
G1 X209.61 Y160.347 E-.8
;WIPE_END
G1 Z.6 F720
G1 X206.882 Y155.087 F10800
G1 Z.2 F720
G1 E.8 F1500
M204 S800
;TYPE:Perimeter
G1 F1200
G1 X43.179 Y155.092 E8.26353
G1 X42.932 Y155.058 E.01259
M73 P2 R80
M73 Q2 S81
G1 X42.711 Y154.963 E.01214
G1 X42.535 Y154.825 E.01129
G1 X42.397 Y154.649 E.01129
G1 X42.282 Y154.339 E.01669
G1 X42.268 Y154.181 E.00801
G1 X42.268 Y55.819 E4.9652
G1 X42.302 Y55.572 E.01259
G1 X42.397 Y55.351 E.01214
G1 X42.535 Y55.175 E.01129
G1 X42.711 Y55.037 E.01129
G1 X43.021 Y54.922 E.01669
G1 X43.179 Y54.908 E.00801
G1 X206.821 Y54.908 E8.26046
G1 X207.068 Y54.942 E.01259
G1 X207.289 Y55.037 E.01214
G1 X207.465 Y55.175 E.01129
G1 X207.603 Y55.351 E.01129
G1 X207.698 Y55.572 E.01214
G1 X207.732 Y55.819 E.01259
G1 X207.732 Y154.181 E4.9652
G1 X207.698 Y154.428 E.01259
G1 X207.603 Y154.649 E.01214
G1 X207.465 Y154.825 E.01129
G1 X207.289 Y154.963 E.01129
G1 X206.971 Y155.079 E.01709
M204 S1000
G1 X206.821 Y154.485 F10800
M204 S800
;TYPE:External perimeter
G1 F1200
G1 X43.179 Y154.485 E8.26046
G1 X43.023 Y154.442 E.00817
G1 X42.918 Y154.337 E.0075
G1 X42.875 Y154.181 E.00817
G1 X42.875 Y55.819 E4.9652
G1 X42.918 Y55.663 E.00817
G1 X43.023 Y55.558 E.0075
G1 X43.179 Y55.515 E.00817
G1 X206.821 Y55.515 E8.26046
G1 X206.977 Y55.558 E.00817
G1 X207.082 Y55.663 E.0075
G1 X207.125 Y55.819 E.00817
G1 X207.125 Y154.181 E4.9652
G1 X207.082 Y154.337 E.00817
M73 P3 R79
M73 Q2 S80
G1 X206.977 Y154.442 E.0075
G1 X206.908 Y154.461 E.00361
M204 S1000
G1 X206.615 Y155.048 F10800
;WIPE_START
G1 F8640
G1 X203.443 Y154.462 E-.8
;WIPE_END
G1 Z.6 F720
G1 X212.225 Y51.644 F10800
G1 Z.2 F720
M73 Q3 S80
G1 E.8 F1500
M204 S800
;TYPE:Solid infill
;WIDTH:0.650907
G1 F1200
G1 X211.269 Y50.688 E.06835
G1 X210.409 Y50.688 E.04348
G1 X211.952 Y52.231 E.11032
G1 X211.952 Y53.09 E.04343
G1 X209.55 Y50.688 E.17173
G1 X208.69 Y50.688 E.04348
G1 X211.952 Y53.95 E.23322
G1 X211.952 Y54.81 E.04348
G1 X207.83 Y50.688 E.2947
G1 X206.97 Y50.688 E.04348
G1 X211.952 Y55.67 E.35619
G1 X211.952 Y56.53 E.04348
G1 X206.11 Y50.688 E.41767
G1 X205.25 Y50.688 E.04348
G1 X211.952 Y57.39 E.47916
G1 X211.952 Y58.249 E.04343
G1 X204.391 Y50.688 E.54057
G1 X203.531 Y50.688 E.04348
G1 X211.952 Y59.109 E.60206
G1 X211.952 Y59.969 E.04348
G1 X208.248 Y56.265 E.26482
G1 X208.248 Y57.125 E.04348
G1 X211.952 Y60.829 E.26482
G1 X211.952 Y61.689 E.04348
G1 X208.248 Y57.985 E.26482
G1 X208.248 Y58.845 E.04348
G1 X211.952 Y62.549 E.26482
G1 X211.952 Y63.408 E.04343
G1 X208.248 Y59.705 E.26478
G1 X208.248 Y60.564 E.04343
G1 X211.952 Y64.268 E.26482
G1 X211.952 Y65.128 E.04348
G1 X208.248 Y61.424 E.26482
G1 X208.248 Y62.284 E.04348
G1 X211.952 Y65.988 E.26482
G1 X211.952 Y66.848 E.04348
G1 X208.248 Y63.144 E.26482
G1 X208.248 Y64.004 E.04348
G1 X211.952 Y67.707 E.26478
G1 X211.952 Y68.567 E.04348
G1 X208.248 Y64.863 E.26482
G1 X208.248 Y65.723 E.04348
G1 X211.952 Y69.427 E.26482
G1 X211.952 Y70.287 E.04348
G1 X208.248 Y66.583 E.26482
G1 X208.248 Y67.443 E.04348
G1 X211.952 Y71.147 E.26482
G1 X211.952 Y72.007 E.04348
G1 X208.248 Y68.303 E.26482
G1 X208.248 Y69.163 E.04348
G1 X211.952 Y72.866 E.26478
G1 X211.952 Y73.726 E.04348
G1 X208.248 Y70.022 E.26482
G1 X208.248 Y70.882 E.04348
G1 X211.952 Y74.586 E.26482
G1 X211.952 Y75.446 E.04348
G1 X208.248 Y71.742 E.26482
G1 X208.248 Y72.602 E.04348
G1 X211.952 Y76.306 E.26482
G1 X211.952 Y77.166 E.04348
G1 X208.248 Y73.462 E.26482
G1 X208.248 Y74.322 E.04348
G1 X211.952 Y78.025 E.26478
G1 X211.952 Y78.885 E.04348
G1 X208.248 Y75.181 E.26482
G1 X208.248 Y76.041 E.04348
G1 X211.952 Y79.745 E.26482
G1 X211.952 Y80.605 E.04348
G1 X208.248 Y76.901 E.26482
G1 X208.248 Y77.761 E.04348
G1 X211.952 Y81.465 E.26482
G1 X211.952 Y82.324 E.04343
G1 X208.248 Y78.621 E.26478
G1 X208.248 Y79.48 E.04343
G1 X211.952 Y83.184 E.26482
G1 X211.952 Y84.044 E.04348
G1 X208.248 Y80.34 E.26482
G1 X208.248 Y81.2 E.04348
G1 X211.952 Y84.904 E.26482
G1 X211.952 Y85.764 E.04348
G1 X208.248 Y82.06 E.26482
G1 X208.248 Y82.92 E.04348
G1 X211.952 Y86.624 E.26482
G1 X211.952 Y87.483 E.04343
G1 X208.248 Y83.78 E.26478
G1 X208.248 Y84.639 E.04343
G1 X211.952 Y88.343 E.26482
G1 X211.952 Y89.203 E.04348
G1 X208.248 Y85.499 E.26482
G1 X208.248 Y86.359 E.04348
G1 X211.952 Y90.063 E.26482
G1 X211.952 Y90.923 E.04348
G1 X208.248 Y87.219 E.26482
G1 X208.248 Y88.079 E.04348
G1 X211.952 Y91.783 E.26482
G1 X211.952 Y92.642 E.04343
G1 X208.248 Y88.939 E.26478
G1 X208.248 Y89.798 E.04343
G1 X211.952 Y93.502 E.26482
G1 X211.952 Y94.362 E.04348
G1 X208.248 Y90.658 E.26482
G1 X208.248 Y91.518 E.04348
G1 X211.952 Y95.222 E.26482
G1 X211.952 Y96.082 E.04348
G1 X208.248 Y92.378 E.26482
G1 X208.248 Y93.238 E.04348
G1 X211.952 Y96.941 E.26478
G1 X211.952 Y97.801 E.04348
G1 X208.248 Y94.097 E.26482
G1 X208.248 Y94.957 E.04348
G1 X211.952 Y98.661 E.26482
G1 X211.952 Y99.521 E.04348
G1 X208.248 Y95.817 E.26482
G1 X208.248 Y96.677 E.04348
G1 X211.952 Y100.381 E.26482
G1 X211.952 Y101.241 E.04348
G1 X208.248 Y97.537 E.26482
G1 X208.248 Y98.397 E.04348
G1 X211.952 Y102.1 E.26478
G1 X211.952 Y102.96 E.04348
G1 X208.248 Y99.256 E.26482
G1 X208.248 Y100.116 E.04348
G1 X211.952 Y103.82 E.26482
G1 X211.952 Y104.68 E.04348
G1 X208.248 Y100.976 E.26482
G1 X208.248 Y101.836 E.04348
G1 X211.952 Y105.54 E.26482
G1 X211.952 Y106.4 E.04348
G1 X208.248 Y102.696 E.26482
G1 X208.248 Y103.556 E.04348
G1 X211.952 Y107.259 E.26478
G1 X211.952 Y108.119 E.04348
G1 X208.248 Y104.415 E.26482
G1 X208.248 Y105.275 E.04348
G1 X211.952 Y108.979 E.26482
G1 X211.952 Y109.839 E.04348
G1 X208.248 Y106.135 E.26482
G1 X208.248 Y106.995 E.04348
G1 X211.952 Y110.699 E.26482
G1 X211.952 Y111.558 E.04343
G1 X208.248 Y107.855 E.26478
G1 X208.248 Y108.714 E.04343
G1 X211.952 Y112.418 E.26482
G1 X211.952 Y113.278 E.04348
G1 X208.248 Y109.574 E.26482
G1 X208.248 Y110.434 E.04348
G1 X211.952 Y114.138 E.26482
G1 X211.952 Y114.998 E.04348
G1 X208.248 Y111.294 E.26482
G1 X208.248 Y112.154 E.04348
G1 X211.952 Y115.858 E.26482
G1 X211.952 Y116.717 E.04343
G1 X208.248 Y113.014 E.26478
G1 X208.248 Y113.873 E.04343
G1 X211.952 Y117.577 E.26482
G1 X211.952 Y118.437 E.04348
G1 X208.248 Y114.733 E.26482
G1 X208.248 Y115.593 E.04348
G1 X211.952 Y119.297 E.26482
G1 X211.952 Y120.157 E.04348
G1 X208.248 Y116.453 E.26482
G1 X208.248 Y117.313 E.04348
G1 X211.952 Y121.017 E.26482
G1 X211.952 Y121.876 E.04343
G1 X208.248 Y118.173 E.26478
G1 X208.248 Y119.032 E.04343
G1 X211.952 Y122.736 E.26482
G1 X211.952 Y123.596 E.04348
G1 X208.248 Y119.892 E.26482
G1 X208.248 Y120.752 E.04348
G1 X211.952 Y124.456 E.26482
G1 X211.952 Y125.316 E.04348
G1 X208.248 Y121.612 E.26482
G1 X208.248 Y122.472 E.04348
G1 X211.952 Y126.175 E.26478
G1 X211.952 Y127.035 E.04348
G1 X208.248 Y123.331 E.26482
G1 X208.248 Y124.191 E.04348
G1 X211.952 Y127.895 E.26482
G1 X211.952 Y128.755 E.04348
G1 X208.248 Y125.051 E.26482
G1 X208.248 Y125.911 E.04348
G1 X211.952 Y129.615 E.26482
G1 X211.952 Y130.475 E.04348
G1 X208.248 Y126.771 E.26482
G1 X208.248 Y127.631 E.04348
G1 X211.952 Y131.334 E.26478
G1 X211.952 Y132.194 E.04348
G1 X208.248 Y128.49 E.26482
G1 X208.248 Y129.35 E.04348
G1 X211.952 Y133.054 E.26482
G1 X211.952 Y133.914 E.04348
G1 X208.248 Y130.21 E.26482
G1 X208.248 Y131.07 E.04348
G1 X211.952 Y134.774 E.26482
G1 X211.952 Y135.634 E.04348
G1 X208.248 Y131.93 E.26482
G1 X208.248 Y132.79 E.04348
G1 X211.952 Y136.493 E.26478
G1 X211.952 Y137.353 E.04348
G1 X208.248 Y133.649 E.26482
G1 X208.248 Y134.509 E.04348
G1 X211.952 Y138.213 E.26482
G1 X211.952 Y139.073 E.04348
G1 X208.248 Y135.369 E.26482
G1 X208.248 Y136.229 E.04348
G1 X211.952 Y139.933 E.26482
G1 X211.952 Y140.792 E.04343
G1 X208.248 Y137.089 E.26478
G1 X208.248 Y137.948 E.04343
G1 X211.952 Y141.652 E.26482
G1 X211.952 Y142.512 E.04348
G1 X208.248 Y138.808 E.26482
G1 X208.248 Y139.668 E.04348
G1 X211.952 Y143.372 E.26482
G1 X211.952 Y144.232 E.04348
G1 X208.248 Y140.528 E.26482
G1 X208.248 Y141.388 E.04348
G1 X211.952 Y145.092 E.26482
G1 X211.952 Y145.951 E.04343
G1 X208.248 Y142.248 E.26478
G1 X208.248 Y143.107 E.04343
G1 X211.952 Y146.811 E.26482
G1 X211.952 Y147.671 E.04348
G1 X208.248 Y143.967 E.26482
G1 X208.248 Y144.827 E.04348
G1 X211.952 Y148.531 E.26482
G1 X211.952 Y149.391 E.04348
G1 X208.248 Y145.687 E.26482
G1 X208.248 Y146.547 E.04348
G1 X211.952 Y150.251 E.26482
G1 X211.952 Y151.11 E.04343
G1 X208.248 Y147.407 E.26478
G1 X208.248 Y148.266 E.04343
G1 X211.952 Y151.97 E.26482
G1 X211.952 Y152.83 E.04348
G1 X208.248 Y149.126 E.26482
G1 X208.248 Y149.986 E.04348
G1 X211.952 Y153.69 E.26482
G1 X211.952 Y154.55 E.04348
G1 X208.248 Y150.846 E.26482
G1 X208.248 Y151.706 E.04348
G1 X211.952 Y155.409 E.26478
G1 X211.952 Y156.269 E.04348
G1 X208.248 Y152.565 E.26482
G1 X208.248 Y153.425 E.04348
G1 X211.952 Y157.129 E.26482
G1 X211.952 Y157.989 E.04348
G1 X208.237 Y154.274 E.2656
G1 X208.197 Y154.568 E.015
G1 X208.034 Y154.931 E.02012
G1 X211.952 Y158.849 E.28012
G1 X211.952 Y159.312 E.02341
G1 X211.555 Y159.312 E.02007
G1 X207.608 Y155.365 E.28219
G1 X207.554 Y155.408 E.00349
G1 X207.208 Y155.557 E.01904
G1 X206.973 Y155.589 E.01199
G1 X210.695 Y159.312 E.26614
G1 X209.836 Y159.312 E.04343
G1 X206.132 Y155.608 E.26482
G1 X205.272 Y155.608 E.04348
G1 X208.976 Y159.312 E.26482
G1 X208.116 Y159.312 E.04348
G1 X204.412 Y155.608 E.26482
G1 X203.552 Y155.608 E.04348
G1 X207.256 Y159.312 E.26482
G1 X206.396 Y159.312 E.04348
G1 X202.692 Y155.608 E.26482
G1 X201.833 Y155.608 E.04343
G1 X205.536 Y159.312 E.26478
G1 X204.677 Y159.312 E.04343
G1 X200.973 Y155.608 E.26482
G1 X200.113 Y155.608 E.04348
G1 X203.817 Y159.312 E.26482
G1 X202.957 Y159.312 E.04348
G1 X199.253 Y155.608 E.26482
G1 X198.393 Y155.608 E.04348
G1 X202.097 Y159.312 E.26482
G1 X201.237 Y159.312 E.04348
G1 X197.534 Y155.608 E.26478
G1 X196.674 Y155.608 E.04348
G1 X200.378 Y159.312 E.26482
G1 X199.518 Y159.312 E.04348
G1 X195.814 Y155.608 E.26482
G1 X194.954 Y155.608 E.04348
G1 X198.658 Y159.312 E.26482
G1 X197.798 Y159.312 E.04348
G1 X194.094 Y155.608 E.26482
G1 X193.234 Y155.608 E.04348
G1 X196.938 Y159.312 E.26482
G1 X196.078 Y159.312 E.04348
G1 X192.375 Y155.608 E.26478
G1 X191.515 Y155.608 E.04348
G1 X195.219 Y159.312 E.26482
G1 X194.359 Y159.312 E.04348
G1 X190.655 Y155.608 E.26482
G1 X189.795 Y155.608 E.04348
G1 X193.499 Y159.312 E.26482
G1 X192.639 Y159.312 E.04348
G1 X188.935 Y155.608 E.26482
G1 X188.075 Y155.608 E.04348
M73 P4 R79
G1 X191.779 Y159.312 E.26482
G1 X190.919 Y159.312 E.04348
G1 X187.216 Y155.608 E.26478
G1 X186.356 Y155.608 E.04348
G1 X190.06 Y159.312 E.26482
G1 X189.2 Y159.312 E.04348
G1 X185.496 Y155.608 E.26482
G1 X184.636 Y155.608 E.04348
M73 Q4 S80
G1 X188.34 Y159.312 E.26482
G1 X187.48 Y159.312 E.04348
G1 X183.776 Y155.608 E.26482
G1 X182.917 Y155.608 E.04343
G1 X186.62 Y159.312 E.26478
G1 X185.761 Y159.312 E.04343
G1 X182.057 Y155.608 E.26482
G1 X181.197 Y155.608 E.04348
G1 X184.901 Y159.312 E.26482
G1 X184.041 Y159.312 E.04348
G1 X180.337 Y155.608 E.26482
G1 X179.477 Y155.608 E.04348
G1 X183.181 Y159.312 E.26482
G1 X182.321 Y159.312 E.04348
G1 X178.617 Y155.608 E.26482
G1 X177.758 Y155.608 E.04343
G1 X181.461 Y159.312 E.26478
G1 X180.602 Y159.312 E.04343
G1 X176.898 Y155.608 E.26482
G1 X176.038 Y155.608 E.04348
G1 X179.742 Y159.312 E.26482
G1 X178.882 Y159.312 E.04348
G1 X175.178 Y155.608 E.26482
G1 X174.318 Y155.608 E.04348
G1 X178.022 Y159.312 E.26482
G1 X177.162 Y159.312 E.04348
G1 X173.458 Y155.608 E.26482
G1 X172.599 Y155.608 E.04343
G1 X176.302 Y159.312 E.26478
G1 X175.443 Y159.312 E.04343
G1 X171.739 Y155.608 E.26482
G1 X170.879 Y155.608 E.04348
G1 X174.583 Y159.312 E.26482
G1 X173.723 Y159.312 E.04348
M73 Q4 S79
G1 X170.019 Y155.608 E.26482
G1 X169.159 Y155.608 E.04348
G1 X172.863 Y159.312 E.26482
G1 X172.003 Y159.312 E.04348
G1 X168.3 Y155.608 E.26478
G1 X167.44 Y155.608 E.04348
G1 X171.144 Y159.312 E.26482
G1 X170.284 Y159.312 E.04348
G1 X166.58 Y155.608 E.26482
G1 X165.72 Y155.608 E.04348
G1 X169.424 Y159.312 E.26482
M73 P4 R78
G1 X168.564 Y159.312 E.04348
G1 X164.86 Y155.608 E.26482
G1 X164 Y155.608 E.04348
G1 X167.704 Y159.312 E.26482
G1 X166.844 Y159.312 E.04348
G1 X163.141 Y155.608 E.26478
G1 X162.281 Y155.608 E.04348
G1 X165.985 Y159.312 E.26482
G1 X165.125 Y159.312 E.04348
G1 X161.421 Y155.608 E.26482
G1 X160.561 Y155.608 E.04348
G1 X164.265 Y159.312 E.26482
G1 X163.405 Y159.312 E.04348
G1 X159.701 Y155.608 E.26482
G1 X158.841 Y155.608 E.04348
G1 X162.545 Y159.312 E.26482
G1 X161.685 Y159.312 E.04348
G1 X157.982 Y155.608 E.26478
G1 X157.122 Y155.608 E.04348
G1 X160.826 Y159.312 E.26482
G1 X159.966 Y159.312 E.04348
G1 X156.262 Y155.608 E.26482
G1 X155.402 Y155.608 E.04348
G1 X159.106 Y159.312 E.26482
G1 X158.246 Y159.312 E.04348
G1 X154.542 Y155.608 E.26482
G1 X153.683 Y155.608 E.04343
G1 X157.386 Y159.312 E.26478
G1 X156.527 Y159.312 E.04343
G1 X152.823 Y155.608 E.26482
G1 X151.963 Y155.608 E.04348
G1 X155.667 Y159.312 E.26482
G1 X154.807 Y159.312 E.04348
G1 X151.103 Y155.608 E.26482
G1 X150.243 Y155.608 E.04348
G1 X153.947 Y159.312 E.26482
G1 X153.087 Y159.312 E.04348
G1 X149.383 Y155.608 E.26482
G1 X148.524 Y155.608 E.04343
G1 X152.227 Y159.312 E.26478
G1 X151.368 Y159.312 E.04343
G1 X147.664 Y155.608 E.26482
G1 X146.804 Y155.608 E.04348
G1 X150.508 Y159.312 E.26482
G1 X149.648 Y159.312 E.04348
G1 X145.944 Y155.608 E.26482
G1 X145.084 Y155.608 E.04348
G1 X148.788 Y159.312 E.26482
